dist/svg/chat-fill.svg

<svg xmlns="http://www.w3.org/2000/svg" viewBox="0 0 24 24"><path d="M11.32 2.28c-1.88.127-3.677.804-5.236 1.972-.474.355-1.329 1.199-1.735 1.712a10 10 0 0 0-2.033 4.896c-.065.515-.065 1.765 0 2.28.118.937.438 2.088.801 2.874q.163.354.163.521c0 .091-.072.445-.16.786l-.321 1.239c-.206.798-.265 1.275-.203 1.65.119.72.514 1.096 1.253 1.196.395.053.784.003 1.576-.202l1.233-.319c.351-.091.713-.165.806-.165q.168 0 .522.163c.496.229 1.426.533 1.994.651a9.7 9.7 0 0 0 6.32-.792 9.72 9.72 0 0 0 4.442-4.442c1.349-2.756 1.349-5.844 0-8.6a9.8 9.8 0 0 0-3.566-3.961c-.824-.522-2.118-1.053-3.056-1.253a11 11 0 0 0-2.8-.206m-2.955 9.063c.206.106.395.42.395.657 0 .267-.202.568-.458.685-.529.24-1.13-.212-1.044-.785a.76.76 0 0 1 1.107-.557m4 0c.206.106.395.42.395.657 0 .267-.202.568-.458.685-.529.24-1.13-.212-1.044-.785a.76.76 0 0 1 1.107-.557m4 0c.206.106.395.42.395.657 0 .267-.202.568-.458.685-.529.24-1.13-.212-1.044-.785a.76.76 0 0 1 1.107-.557"/></svg>

<svg fill="none" xmlns="http://www.w3.org/2000/svg" viewBox="0 0 24 24"><path d="M11.320 2.280 C 9.440 2.407,7.643 3.084,6.084 4.252 C 5.610 4.607,4.755 5.451,4.349 5.964 C 3.260 7.343,2.540 9.077,2.316 10.860 C 2.251 11.375,2.251 12.625,2.316 13.140 C 2.434 14.077,2.754 15.228,3.117 16.014 C 3.225 16.249,3.280 16.424,3.280 16.535 C 3.280 16.626,3.208 16.980,3.120 17.321 C 3.031 17.661,2.887 18.219,2.799 18.560 C 2.593 19.358,2.534 19.835,2.596 20.210 C 2.715 20.930,3.110 21.306,3.849 21.406 C 4.244 21.459,4.633 21.409,5.425 21.204 C 5.752 21.120,6.307 20.976,6.658 20.885 C 7.009 20.794,7.371 20.720,7.464 20.720 C 7.576 20.720,7.750 20.774,7.986 20.883 C 8.482 21.112,9.412 21.416,9.980 21.534 C 12.146 21.984,14.339 21.709,16.300 20.742 C 18.243 19.782,19.800 18.226,20.742 16.300 C 22.091 13.544,22.091 10.456,20.742 7.700 C 19.952 6.085,18.721 4.718,17.176 3.739 C 16.352 3.217,15.058 2.686,14.120 2.486 C 13.247 2.300,12.184 2.222,11.320 2.280 M8.365 11.343 C 8.571 11.449,8.760 11.763,8.760 12.000 C 8.760 12.267,8.558 12.568,8.302 12.685 C 7.773 12.925,7.172 12.473,7.258 11.900 C 7.335 11.385,7.896 11.103,8.365 11.343 M12.365 11.343 C 12.571 11.449,12.760 11.763,12.760 12.000 C 12.760 12.267,12.558 12.568,12.302 12.685 C 11.773 12.925,11.172 12.473,11.258 11.900 C 11.335 11.385,11.896 11.103,12.365 11.343 M16.365 11.343 C 16.571 11.449,16.760 11.763,16.760 12.000 C 16.760 12.267,16.558 12.568,16.302 12.685 C 15.773 12.925,15.172 12.473,15.258 11.900 C 15.335 11.385,15.896 11.103,16.365 11.343 " stroke="none" fill-rule="evenodd"/></svg>
